X: 1583
T: Angus McCleod
R: reel
M: 4/4
K: Gmajor
|:D2|G4 G3 A|B2 d2 B4|G4 G3 A|B2 d2 c4|
A4 A3 B|c2 d2 c4|f3 e d2 c2|B2 A2 G2:|
|:d2|g4 g3 f|e2 d2 B4|d4 d3 e|d2 B2 A4|
G4 G3 A|B2 G2 c4|f3 e d2 c2|B2 A2 G2:|

